src/assets/outline/Mask2.svg

<?xml version="1.0" encoding="UTF-8"?>
<svg width="24" height="24" viewBox="0 0 24 24" xmlns="http://www.w3.org/2000/svg">
 <path d="m12 22.75c-5.93 0-10.75-4.82-10.75-10.75s4.82-10.75 10.75-10.75 10.75 4.82 10.75 10.75-4.82 10.75-10.75 10.75zm0-20c-5.1 0-9.25 4.15-9.25 9.25s4.15 9.25 9.25 9.25 9.25-4.15 9.25-9.25-4.15-9.25-9.25-9.25z"/>
 <path d="m12 17.75c-0.41 0-0.75-0.34-0.75-0.75v-10c0-0.41 0.34-0.75 0.75-0.75 3.17 0 5.75 2.58 5.75 5.75s-2.58 5.75-5.75 5.75zm0.75-9.93v8.37c1.99-0.35 3.5-2.1 3.5-4.18 0-2.08-1.51-3.84-3.5-4.19z"/>
 <path d="m12 17.75c-3.17 0-5.75-2.58-5.75-5.75s2.58-5.75 5.75-5.75c0.41 0 0.75 0.34 0.75 0.75v10c0 0.41-0.34 0.75-0.75 0.75zm-0.75-9.93c-1.99 0.35-3.5 2.1-3.5 4.18s1.51 3.83 3.5 4.18v-8.36z"/>
 <path d="m12 22.75c-0.41 0-0.75-0.34-0.75-0.75v-5c0-0.41 0.34-0.75 0.75-0.75s0.75 0.34 0.75 0.75v5c0 0.41-0.34 0.75-0.75 0.75z"/>
 <path d="m12 7.75c-0.41 0-0.75-0.34-0.75-0.75v-5c0-0.41 0.34-0.75 0.75-0.75s0.75 0.34 0.75 0.75v5c0 0.41-0.34 0.75-0.75 0.75z"/>
</svg>

<svg width="24" height="24" viewBox="0 0 24 24"  xmlns="http://www.w3.org/2000/svg">
<path d="M12 22.75C6.07 22.75 1.25 17.93 1.25 12C1.25 6.07 6.07 1.25 12 1.25C17.93 1.25 22.75 6.07 22.75 12C22.75 17.93 17.93 22.75 12 22.75ZM12 2.75C6.9 2.75 2.75 6.9 2.75 12C2.75 17.1 6.9 21.25 12 21.25C17.1 21.25 21.25 17.1 21.25 12C21.25 6.9 17.1 2.75 12 2.75Z" />
<path d="M12 17.75C11.59 17.75 11.25 17.41 11.25 17V7C11.25 6.59 11.59 6.25 12 6.25C15.17 6.25 17.75 8.83 17.75 12C17.75 15.17 15.17 17.75 12 17.75ZM12.75 7.82001V16.19C14.74 15.84 16.25 14.09 16.25 12.01C16.25 9.93001 14.74 8.17001 12.75 7.82001Z" />
<path d="M12 17.75C8.83 17.75 6.25 15.17 6.25 12C6.25 8.83 8.83 6.25 12 6.25C12.41 6.25 12.75 6.59 12.75 7V17C12.75 17.41 12.41 17.75 12 17.75ZM11.25 7.82001C9.26 8.17001 7.75 9.92 7.75 12C7.75 14.08 9.26 15.83 11.25 16.18V7.82001Z" />
<path d="M12 22.75C11.59 22.75 11.25 22.41 11.25 22V17C11.25 16.59 11.59 16.25 12 16.25C12.41 16.25 12.75 16.59 12.75 17V22C12.75 22.41 12.41 22.75 12 22.75Z" />
<path d="M12 7.75C11.59 7.75 11.25 7.41 11.25 7V2C11.25 1.59 11.59 1.25 12 1.25C12.41 1.25 12.75 1.59 12.75 2V7C12.75 7.41 12.41 7.75 12 7.75Z" />
</svg>
